X:1
T:Kensal Green, 76.76 D
T:Kensal Green, 76.76 D
T:Philip Paul Bliss, 1874
T:Public Domain Courtesy of the Cyber Hymnal™
C:Philip Paul Bliss, 1874
Z:Public Domain
Z:Courtesy of the Cyber Hymnal™
%%score ( 1 2 ) ( 3 4 )
L:1/8
Q:1/4=110
M:4/4
K:A
V:1 treble 
V:2 treble 
V:3 bass 
V:4 bass 
V:1
 [CE]2 | [CA]2 [CA]2 [DB]2 [Ec]2 | [Fd]4 [Ec]2 [Ec]2 | [Ec]2 [DB]2 [DF]2 [EG]2 | [CA]6 [CE]2 | %5
 [CA]2 [CA]2 [DB]2 [Ec]2 | [Fd]4 [Ec]2 [Ec]2 | [Ec]2 [DB]2 [DF]2 [DG]2 | [CA]6 E2 | %9
 [EB]2 [EB]2 [EB]2 [E^A]2 | (B3 c [Ed]2) [Ec]2 | [EB]2 [^DA]2 [EG]2 [DF]2 | (E3 F E2) [DE]2 | %13
 [CA]2 [CA]2 [DB]2 [Ec]2 | [Fd]4 [Ec]2 [Ec]2 | [Ec]2 [DB]2 [DF]2 [DG]2 | [CA]6 |] %17
V:2
 x2 | x8 | x8 | x8 | x8 | x8 | x8 | x8 | x6 E2 | x8 | E4 x4 | x8 | E6 x2 | x8 | x8 | x8 | x6 |] %17
V:3
 [A,,A,]2 | [A,,A,]2 [A,,A,]2 [A,,A,]2 [A,,A,]2 | [A,,A,]4 [A,,A,]2 [A,,A,]2 | %3
 [E,A,]2 [E,G,]2 [E,A,]2 [E,B,]2 | [A,,A,]6 [A,,A,]2 | [A,,A,]2 [A,,A,]2 [A,,A,]2 [A,,A,]2 | %6
 [A,,A,]4 [A,,A,]2 [A,,A,]2 | [E,A,]2 [E,G,]2 [E,A,]2 [E,B,]2 | [A,,A,]6 [E,G,]2 | %9
 [E,G,]2 [E,G,]2 [E,G,]2 [E,^^F,]2 | (G,3 A, [E,B,]2) A,2 | [G,B,]2 [F,B,]2 [E,B,]2 [B,,A,]2 | %12
 (G,3 A, G,2) [E,G,]2 | [A,,A,]2 [G,,E,]2 [G,,E,]2 [G,,E,]2 | [G,,E,]4 [G,,E,]2 [G,,E,]2 | %15
 [E,A,]2 [E,G,]2 [E,A,]2 [E,B,]2 | [A,,A,]6 |] %17
V:4
 x2 | x8 | x8 | x8 | x8 | x8 | x8 | x8 | x8 | x8 | E,4 A,2 x2 | x8 | E,6 x2 | x8 | x8 | x8 | x6 |] %17

